X: 29273
T: New Mown Meadows, The
R: reel
M: 4/4
K: Dmixolydian
|:A~D3 EDEG|AcBG AGEG|A~D3 EDEF|G2AG EG G2|
A~D3 EDEG|AcBG AGEG|c2 c/B/A B2BG|ABAG EG G2:|
|:Bddg e/f/g dB|cA B/A/G B/A/G EG|Bddd d/e/f dB|GA B/A/G EG G2|
Bddg e/f/g dB|cABG AGEG|c2 c/B/A B2BG|ABAG EG G2:|

